icons/mobile/24/svg/thumbs-up-24.svg

<svg width="24" height="24" viewBox="0 0 24 24" fill="none" xmlns="http://www.w3.org/2000/svg">
<path fill-rule="evenodd" clip-rule="evenodd" d="M12.3418 2.5C13.7947 2.5 14.9774 3.68286 14.9775 5.13574V7.48828C15.6505 7.45328 16.3273 7.43655 16.9873 7.43555C17.7062 7.43555 18.4005 7.45717 19.0654 7.49316C20.6782 7.58239 21.966 8.91547 22 10.5283C22.025 11.7642 21.8625 12.99 21.5176 14.1719C21.0596 15.7399 20.2988 17.1821 19.2568 18.4561C18.7298 19.099 17.9945 19.5008 17.1875 19.5908C15.3956 19.7888 13.5724 19.927 11.7676 20H6.91309C6.70703 20.5823 6.15293 21 5.5 21H3.5C2.67157 21 2 20.3284 2 19.5V10C2 9.17157 2.67157 8.5 3.5 8.5H5.5C6.22474 8.5 6.82971 9.01393 6.96973 9.69727L7.40625 9.68457C7.88314 8.9597 8.31448 8.20451 8.69141 7.43066C9.23528 6.31784 9.67688 5.14791 10.0068 3.95312C10.3438 3.05413 11.1453 2.5 12.0273 2.5H12.3418ZM12.0264 4.25C11.8684 4.25 11.7239 4.34909 11.6689 4.49609C11.3349 5.71706 10.8537 6.98827 10.2627 8.19824C9.78373 9.18013 9.22454 10.1361 8.59961 11.042C8.44264 11.2708 8.18605 11.4109 7.9082 11.4199L7 11.4482V18.25H11.7305C13.4593 18.179 15.2414 18.0436 16.9922 17.8496C17.3441 17.8116 17.6664 17.6316 17.9004 17.3467C18.7932 16.2558 19.444 15.0215 19.8359 13.6807C20.1308 12.6699 20.27 11.6212 20.248 10.5635C20.234 9.86048 19.6718 9.27921 18.9678 9.24121C18.3048 9.20422 17.6316 9.18655 16.8896 9.18555C15.9918 9.18756 15.0768 9.22398 14.1689 9.29297C13.926 9.31395 13.6848 9.22937 13.5068 9.06348C13.3278 8.89848 13.2266 8.6659 13.2266 8.4209V5.13574C13.2264 4.64786 12.8297 4.25 12.3408 4.25H12.0264Z" fill="black"/>
</svg>

<!-- This Source Code Form is subject to the terms of the Mozilla Public
   - License, v. 2.0. If a copy of the MPL was not distributed with this
   - file, You can obtain one at http://mozilla.org/MPL/2.0/. -->
<svg xmlns="http://www.w3.org/2000/svg" width="24" height="24" fill="none" viewBox="0 0 24 24">
    <path fill="#000" fill-rule="evenodd" d="M12.342 2.5a2.64 2.64 0 0 1 2.635 2.636v2.352a38 38 0 0 1 4.088.005A3.12 3.12 0 0 1 22 10.528a12.12 12.12 0 0 1-2.743 7.928 3.1 3.1 0 0 1-2.07 1.135 78 78 0 0 1-5.42.409H6.914A1.5 1.5 0 0 1 5.5 21h-2A1.5 1.5 0 0 1 2 19.5V10a1.5 1.5 0 0 1 1.5-1.5h2a1.5 1.5 0 0 1 1.47 1.197l.436-.012a20.2 20.2 0 0 0 2.6-5.732c.338-.899 1.14-1.453 2.021-1.453zm-.316 1.75c-.158 0-.302.1-.357.246a21.5 21.5 0 0 1-1.406 3.702A22 22 0 0 1 8.6 11.042a.87.87 0 0 1-.692.378L7 11.448v6.802h4.73a77 77 0 0 0 5.262-.4c.352-.038.674-.218.908-.503a10.34 10.34 0 0 0 2.348-6.784 1.36 1.36 0 0 0-1.28-1.322 38 38 0 0 0-2.078-.055 37 37 0 0 0-2.721.107.87.87 0 0 1-.942-.872V5.136a.887.887 0 0 0-.886-.886z" clip-rule="evenodd" />
</svg>
